public/assets/techs/mysql.svg

<svg width="20" height="20" viewBox="0 0 20 20" fill="none" xmlns="http://www.w3.org/2000/svg">
<g clip-path="url(#clip0_310_18)">
<path d="M20.1075 19.5098L19.6841 19.1065C19.475 18.8306 19.2525 18.5865 19.01 18.364L19.0058 18.3606C18.7569 18.1345 18.4983 17.9195 18.23 17.7156C18.015 17.5678 17.7194 17.3898 17.3433 17.1815C17.0341 17.0423 16.7925 16.7981 16.6616 16.4948L16.6583 16.4865L16.6183 16.4665C16.795 16.449 16.9566 16.4165 17.1116 16.3706L17.0925 16.3756L17.5675 16.2448C17.7641 16.1831 17.9916 16.1431 18.2275 16.134H18.2325C18.4808 16.124 18.715 16.084 18.9383 16.0181L18.9175 16.0231C19.0253 15.9965 19.1361 15.9662 19.25 15.9323C19.3639 15.8984 19.4614 15.8681 19.5425 15.8415V15.7006C19.4619 15.5801 19.3644 15.4423 19.25 15.2873C19.1408 15.139 19.0183 15.0098 18.8808 14.8973L18.8766 14.894C18.5272 14.5851 18.1653 14.2862 17.7908 13.9973C17.4608 13.7398 17.0866 13.4773 16.6983 13.234L16.6416 13.2006C16.4366 13.0656 16.2016 12.9406 15.9541 12.8381L15.9258 12.8281C15.6769 12.727 15.4316 12.6162 15.19 12.4956C15.1091 12.4556 15.015 12.4206 14.9175 12.3965L14.9083 12.3948C14.8108 12.3748 14.7275 12.3248 14.6666 12.254L14.6658 12.2531C14.5508 12.1015 14.45 11.929 14.37 11.7456L14.3633 11.729C14.2828 11.5406 14.1955 11.3598 14.1016 11.1865C13.9 10.7965 13.705 10.4001 13.5166 9.99729C13.3283 9.59451 13.1475 9.19118 12.9741 8.78729C12.8536 8.5184 12.7428 8.24979 12.6416 7.98146C12.53 7.68646 12.4041 7.43396 12.2575 7.19646L12.2683 7.21563C11.9083 6.60229 11.5491 6.07896 11.1591 5.58146L11.1825 5.61313C10.7966 5.12646 10.3966 4.69146 9.96664 4.28813L9.95998 4.28229C9.53581 3.88396 9.07914 3.50396 8.59998 3.15229L8.55914 3.12313C8.06137 2.76146 7.51692 2.40535 6.92581 2.05479C6.68831 1.91479 6.41248 1.80063 6.12164 1.72729L6.09998 1.72229L5.17248 1.49063L4.64831 1.45063C4.47387 1.43729 4.29914 1.43063 4.12414 1.43063C4.00081 1.36563 3.89498 1.28813 3.80164 1.19813C3.70998 1.11063 3.61081 1.02813 3.50748 0.952292L3.49914 0.946459C2.99498 0.652292 2.40914 0.383126 1.79664 0.171459L1.72581 0.149792C1.56498 0.0556256 1.37164 0.00062561 1.16581 0.00062561C1.01914 0.00062561 0.87831 0.0289589 0.749976 0.0797923L0.757476 0.0772923C0.44081 0.203126 0.199143 0.458959 0.0949764 0.777292L0.0924764 0.785626C0.0316431 0.928959 -0.00335693 1.09479 -0.00335693 1.26979C-0.00335693 1.57646 0.104976 1.85729 0.28581 2.07646L0.284143 2.07396C0.586365 2.47674 0.818032 2.7934 0.979143 3.02396C1.0997 3.18563 1.22414 3.35368 1.35248 3.52813C1.46998 3.68479 1.57414 3.86396 1.65831 4.05313L1.66498 4.07063C1.71164 4.16979 1.75248 4.28813 1.78248 4.40979L1.78498 4.42313C1.81164 4.53757 1.84525 4.66201 1.88581 4.79646C2.00637 5.10535 2.12053 5.42201 2.22831 5.74646C2.34581 6.10063 2.47581 6.40063 2.62664 6.68646L2.61081 6.65313C2.69137 6.8009 2.7722 6.94535 2.85331 7.08646C2.93442 7.22757 3.02164 7.36535 3.11498 7.49979C3.16914 7.58146 3.23748 7.64896 3.31581 7.70146L3.31831 7.70313C3.40081 7.76313 3.45498 7.85729 3.45914 7.96396V7.96479C3.36414 8.10479 3.29998 8.27229 3.27831 8.45313L3.27748 8.45813C3.24831 8.66896 3.20664 8.85646 3.14998 9.03729L3.15664 9.01229C2.97081 9.56729 2.86414 10.2073 2.86414 10.8715C2.86414 11.0865 2.87498 11.2981 2.89748 11.5073L2.89498 11.4815C2.94498 12.2798 3.18581 13.0131 3.57164 13.6481L3.55998 13.6273C3.72414 13.8731 3.89998 14.0873 4.09414 14.2831C4.23414 14.4398 4.43748 14.5381 4.66414 14.5381C4.79081 14.5381 4.91081 14.5073 5.01581 14.4523L5.01164 14.454C5.30331 14.349 5.51081 14.0823 5.52581 13.7648V13.7631C5.56581 13.3681 5.62581 13.0148 5.70831 12.6698L5.69748 12.7256C5.71748 12.6731 5.72914 12.6131 5.72914 12.5498C5.72914 12.5373 5.72831 12.5248 5.72748 12.5123V12.514C5.72081 12.4534 5.75775 12.3962 5.83831 12.3423V12.3823C5.91887 12.5706 6.00275 12.7587 6.08998 12.9465C6.1772 13.1342 6.26775 13.3223 6.36164 13.5106C6.60748 13.8848 6.86831 14.2115 7.15498 14.5123L7.15248 14.5098C7.43998 14.8198 7.75331 15.0981 8.09164 15.344L8.10998 15.3565C8.28664 15.4915 8.44164 15.6373 8.58164 15.7965L8.58498 15.7998C8.71664 15.9548 8.87414 16.0823 9.05164 16.1781L9.05998 16.1823V16.1623H9.09998C9.06748 16.0898 9.01498 16.0315 8.94998 15.9915L8.94831 15.9906C8.88248 15.954 8.82581 15.9173 8.77248 15.8773L8.77664 15.8798C8.65609 15.7592 8.53164 15.6248 8.40331 15.4765C8.27498 15.3281 8.15748 15.187 8.05081 15.0531C7.76859 14.6631 7.49942 14.2556 7.24331 13.8306C6.9872 13.4056 6.74525 12.9737 6.51748 12.5348C6.4097 12.3198 6.30553 12.0981 6.20498 11.8698C6.10442 11.6415 6.00692 11.4198 5.91248 11.2048C5.87164 11.1223 5.84331 11.0273 5.83248 10.9265V10.9223C5.82748 10.8265 5.77248 10.744 5.69248 10.7015L5.69081 10.7006C5.58998 10.8723 5.47831 11.0206 5.35081 11.1548L5.35164 11.154C5.21914 11.2931 5.11081 11.4573 5.03331 11.6373L5.02914 11.6481C4.91164 11.9331 4.82581 12.264 4.78831 12.6098L4.78664 12.6256C4.74664 12.9817 4.70637 13.3478 4.66581 13.724L4.62581 13.744L4.60581 13.764C4.38914 13.7198 4.21081 13.5815 4.11414 13.3948L4.11248 13.3906C4.01137 13.1956 3.92081 13.004 3.84081 12.8156C3.63414 12.2848 3.50581 11.6706 3.48831 11.029V11.0215C3.48081 10.9198 3.47748 10.8006 3.47748 10.6815C3.47748 10.1265 3.56498 9.59146 3.72664 9.08979L3.71664 9.12646C3.75664 8.97868 3.84387 8.72979 3.97831 8.37979C4.11275 8.02979 4.1397 7.78785 4.05914 7.65396C4.01748 7.51646 3.93998 7.40063 3.83831 7.31229L3.83748 7.31146C3.73581 7.22313 3.64331 7.13063 3.55831 7.03229L3.55581 7.02896C3.46192 6.8934 3.37137 6.74896 3.28414 6.59563C3.19692 6.44229 3.1197 6.29118 3.05248 6.14229C2.91498 5.82396 2.77414 5.42479 2.65748 5.01479L2.63914 4.94063C2.50664 4.46979 2.35914 4.07146 2.18414 3.68813L2.20581 3.74146C2.11331 3.53146 2.00581 3.34979 1.88081 3.18396L1.88581 3.19063C1.75025 3.00951 1.62914 2.83813 1.52248 2.67646C1.38692 2.50201 1.25248 2.33396 1.11914 2.17229C0.98331 2.00813 0.862476 1.82313 0.764143 1.62479L0.756643 1.60813C0.716643 1.52729 0.681643 1.43313 0.657476 1.33563L0.65581 1.32646C0.646643 1.29729 0.641643 1.26313 0.641643 1.22896C0.641643 1.16063 0.661643 1.09646 0.696643 1.04313L0.69581 1.04479C0.704976 0.998126 0.726643 0.957292 0.756643 0.923959C0.789143 0.894792 0.83081 0.873126 0.87581 0.863959H0.877476C0.94831 0.818126 1.03414 0.790626 1.12748 0.790626C1.19748 0.790626 1.26498 0.806459 1.32414 0.834792L1.32164 0.833959C1.50414 0.885626 1.65164 0.937292 1.79581 0.996459L1.76581 0.985626C2.02081 1.0934 2.25609 1.19757 2.47164 1.29813C2.71998 1.41646 2.93164 1.54146 3.13164 1.68063L3.11664 1.67063C3.22442 1.73785 3.33192 1.81174 3.43914 1.89229C3.54637 1.97285 3.66053 2.05368 3.78164 2.13479H4.06414C4.27914 2.13479 4.50748 2.14507 4.74914 2.16563C4.99331 2.18479 5.21914 2.23063 5.43414 2.30229L5.41414 2.29646C5.81498 2.41563 6.15914 2.55646 6.48581 2.72563L6.45164 2.70979C6.78109 2.87757 7.09359 3.05563 7.38914 3.24396C7.87998 3.54979 8.30414 3.86313 8.70331 4.20563L8.68914 4.19396C9.10581 4.55063 9.48414 4.91646 9.83914 5.30313L9.84748 5.31313C10.1941 5.69146 10.525 6.10229 10.8275 6.53313L10.8533 6.57229C11.1316 6.96563 11.4125 7.42063 11.665 7.89229L11.7 7.96313C11.7675 8.09146 11.8358 8.24896 11.895 8.40979L11.9041 8.43729C11.958 8.59174 12.0183 8.75007 12.085 8.91229C12.2328 9.2484 12.3911 9.58757 12.56 9.92979C12.7289 10.272 12.8872 10.6048 13.035 10.9281L13.4783 11.8956C13.6341 12.234 13.8083 12.5256 14.0108 12.7948L14.0016 12.7823C14.1708 12.9631 14.3966 13.0898 14.65 13.134L14.6566 13.1348C14.9633 13.2115 15.2216 13.2981 15.4716 13.4006L15.4325 13.3865C15.5516 13.4406 15.705 13.4981 15.8625 13.549L15.8958 13.5581C16.0725 13.6123 16.2258 13.684 16.3666 13.774L16.3591 13.7698C16.6316 13.9223 16.8625 14.0723 17.0825 14.2356L17.065 14.2231C17.2933 14.3909 17.5216 14.5492 17.75 14.6981C17.8578 14.7787 18.0386 14.8962 18.2925 15.0506C18.5464 15.2051 18.6808 15.3495 18.6958 15.484C18.6008 15.4806 18.4883 15.4781 18.3758 15.4781C17.9658 15.4781 17.5625 15.5048 17.1675 15.5565L17.2141 15.5515C16.7675 15.6115 16.3625 15.7206 15.9816 15.8765L16.015 15.8648C15.9208 15.9056 15.8083 15.9431 15.6916 15.9723L15.6758 15.9756C15.5575 15.9931 15.4658 16.0881 15.4541 16.2065V16.2073C15.505 16.2706 15.5458 16.344 15.5733 16.424L15.575 16.429C15.6033 16.514 15.6375 16.5873 15.6791 16.6556L15.6766 16.6506C15.7758 16.8265 15.8825 16.9781 16.0025 17.1181L15.9991 17.114C16.1166 17.259 16.2491 17.3848 16.3958 17.4923L16.4016 17.4965C16.5372 17.6042 16.6783 17.7151 16.825 17.829C16.9591 17.934 17.1108 18.0373 17.2683 18.1306L17.2883 18.1415C17.525 18.2865 17.8 18.4248 18.0866 18.5406L18.125 18.554C18.4366 18.679 18.7041 18.824 18.9525 18.9965L18.9391 18.9873C19.1008 19.0812 19.2619 19.1853 19.4225 19.2998C19.583 19.4142 19.7375 19.5251 19.8858 19.6323C19.9466 19.6923 20 19.759 20.045 19.8315L20.0475 19.8356C20.1233 19.9223 20.2283 19.9815 20.3475 19.9965H20.35V19.9565C20.2766 19.9006 20.2225 19.8231 20.1966 19.734L20.1958 19.7306C20.175 19.6456 20.1441 19.5715 20.1025 19.5031L20.1041 19.5065L20.1075 19.5098ZM4.62748 3.50563C4.5197 3.50563 4.41887 3.50896 4.32498 3.51563C4.22914 3.52229 4.13998 3.53979 4.05581 3.56813L4.06331 3.56563V3.58563H4.10331C4.1572 3.66618 4.22498 3.75674 4.30664 3.85729C4.38831 3.95785 4.4622 4.05535 4.52831 4.14979L4.85081 4.81479L4.89081 4.79479C4.98498 4.72646 5.05748 4.63479 5.10081 4.52729L5.10248 4.52313C5.14581 4.40729 5.17081 4.27229 5.17081 4.13229C5.17081 4.11729 5.17081 4.10229 5.16998 4.08729V4.08979C5.13248 4.05313 5.10164 4.00979 5.07998 3.96146L5.07914 3.95896L5.01164 3.80729C4.96748 3.73729 4.90581 3.68229 4.83331 3.64729L4.83081 3.64646C4.75248 3.60896 4.68581 3.56146 4.62748 3.50563V3.50563Z" fill="#EEEEEE"/>
</g>
<defs>
<clipPath id="clip0_310_18">
<rect width="20" height="20" fill="white"/>
</clipPath>
</defs>
</svg>

<svg xmlns="http://www.w3.org/2000/svg" width="20" height="20" fill="none" xmlns:v="https://vecta.io/nano"><g clip-path="url(#A)"><path d="M20.108 19.51l-.423-.403a5.55 5.55 0 0 0-.674-.742l-.004-.003-.776-.645c-.215-.148-.511-.326-.887-.534-.309-.139-.551-.383-.682-.687l-.003-.008-.04-.02c.177-.017.338-.05.493-.096l-.019.005.475-.131c.197-.062.424-.102.66-.111h.005a2.89 2.89 0 0 0 .706-.116l-.021.005.332-.091.293-.091v-.141l-.293-.413c-.109-.148-.232-.277-.369-.39l-.004-.003-1.086-.897c-.33-.257-.704-.52-1.093-.763l-.057-.033c-.205-.135-.44-.26-.687-.362l-.028-.01-.736-.332a1.36 1.36 0 0 0-.272-.099l-.009-.002a.43.43 0 0 1-.242-.141l-.001-.001c-.115-.152-.216-.324-.296-.508l-.007-.017-.262-.542-.585-1.189-.543-1.21-.332-.806c-.112-.295-.238-.548-.384-.785l.011.019a14.47 14.47 0 0 0-1.109-1.634l.023.032c-.386-.487-.786-.922-1.216-1.325l-.007-.006c-.424-.398-.881-.778-1.36-1.13l-.041-.029-1.633-1.068c-.238-.14-.513-.254-.804-.328L6.1 1.722l-.927-.232-.524-.04-.524-.02a1.4 1.4 0 0 1-.323-.233c-.092-.087-.191-.17-.294-.246L3.499.946A9.74 9.74 0 0 0 1.797.171L1.726.15a1.11 1.11 0 0 0-.56-.149A1.13 1.13 0 0 0 .75.08L.757.077C.441.203.199.459.095.777L.092.786c-.061.143-.096.309-.096.484a1.26 1.26 0 0 0 .289.807l-.002-.002.695.95.373.504a2.73 2.73 0 0 1 .306.525l.007.018a1.86 1.86 0 0 1 .117.339l.002.013.101.373.343.95a6.06 6.06 0 0 0 .398.94l-.016-.033.243.433.262.413c.054.082.122.149.201.202l.002.002a.34.34 0 0 1 .141.261v.001c-.095.14-.159.308-.181.488v.005c-.029.211-.071.398-.127.579l.007-.025a5.92 5.92 0 0 0-.292 1.859c0 .215.011.427.033.636l-.002-.026a4.72 4.72 0 0 0 .677 2.167l-.012-.021c.164.246.34.46.534.656a.76.76 0 0 0 .57.255c.127 0 .247-.031.352-.086l-.004.002a.77.77 0 0 0 .514-.689v-.002a8.17 8.17 0 0 1 .183-1.093l-.011.056c.02-.053.032-.113.032-.176l-.002-.037v.002c-.007-.061.03-.118.111-.172v.04l.252.564.272.564c.246.374.507.701.793 1.002l-.003-.002c.288.31.601.588.939.834l.018.013c.177.135.332.281.472.44l.003.003a1.62 1.62 0 0 0 .467.378l.008.004v-.02h.04c-.032-.072-.085-.131-.15-.171l-.002-.001c-.066-.037-.123-.073-.176-.113l.004.002-.373-.403-.353-.423-.807-1.223-.726-1.296-.312-.665-.293-.665a.83.83 0 0 1-.08-.278v-.004c-.005-.096-.06-.178-.14-.221l-.002-.001c-.101.172-.213.32-.34.454l.001-.001c-.133.139-.241.303-.318.483l-.004.011a3.56 3.56 0 0 0-.241.962l-.002.016-.121 1.098-.04.02-.02.02a.71.71 0 0 1-.492-.369l-.002-.004-.272-.575c-.207-.531-.335-1.145-.353-1.787v-.008l-.011-.34a5.18 5.18 0 0 1 .249-1.592l-.01.037c.04-.148.127-.397.262-.747s.161-.592.081-.726a.73.73 0 0 0-.221-.342v-.001c-.102-.088-.194-.181-.279-.279l-.003-.003-.272-.433-.232-.453c-.138-.318-.278-.718-.395-1.128l-.018-.074a8.48 8.48 0 0 0-.455-1.252l.022.053c-.093-.21-.2-.392-.325-.558l.005.007-.363-.514-.403-.504c-.136-.164-.257-.349-.355-.547l-.008-.017c-.04-.081-.075-.175-.099-.272l-.002-.009c-.009-.029-.014-.063-.014-.097 0-.068.02-.133.055-.186l-.001.002C.705.998.727.957.757.924S.831.873.876.864h.002a.46.46 0 0 1 .25-.073c.07 0 .137.016.197.044L1.322.834a4.28 4.28 0 0 1 .474.162l-.03-.011.706.313c.248.118.46.243.66.383l-.015-.01.322.222.343.243h.282l.685.031c.244.019.47.065.685.137l-.02-.006a6.01 6.01 0 0 1 1.072.429l-.034-.016.938.534c.491.306.915.619 1.314.962l-.014-.012c.417.357.795.723 1.15 1.109l.008.01c.347.378.678.789.98 1.22l.026.039a12.69 12.69 0 0 1 .812 1.32l.035.071a3.84 3.84 0 0 1 .195.447l.009.028.181.475.475 1.018.475.998.443.967a4.84 4.84 0 0 0 .532.899l-.009-.013a1.16 1.16 0 0 0 .648.352l.007.001a5.82 5.82 0 0 1 .815.266l-.039-.014a4.25 4.25 0 0 0 .43.162l.033.009a1.89 1.89 0 0 1 .471.216l-.008-.004a6.58 6.58 0 0 1 .723.466l-.017-.012.685.475c.108.081.289.198.543.352s.388.299.403.433l-.32-.006c-.41 0-.813.027-1.208.078l.047-.005a4.96 4.96 0 0 0-1.233.325l.033-.012a2.14 2.14 0 0 1-.323.107l-.016.003a.26.26 0 0 0-.222.231v.001a.72.72 0 0 1 .119.217l.002.005c.028.085.063.158.104.227l-.002-.005a2.88 2.88 0 0 0 .326.467l-.003-.004a2.13 2.13 0 0 0 .397.378l.006.004.423.332a4.21 4.21 0 0 0 .443.302l.02.011c.237.145.512.283.798.399l.038.013a4.1 4.1 0 0 1 .828.443l-.013-.009.483.313.463.332c.061.06.114.127.159.199l.002.004c.076.087.181.146.3.161h.003v-.04a.43.43 0 0 1-.153-.222l-.001-.003a.79.79 0 0 0-.093-.227l.002.003.003.003zM4.628 3.506l-.303.01a1.07 1.07 0 0 0-.269.053l.007-.002v.02h.04c.054.081.122.171.203.272l.222.293.322.665.04-.02c.094-.068.167-.16.21-.268l.002-.004a1.13 1.13 0 0 0 .068-.391l-.001-.045v.002a.42.42 0 0 1-.09-.128l-.001-.003-.068-.152c-.044-.07-.106-.125-.178-.16l-.003-.001c-.078-.037-.145-.085-.203-.141z" fill="#47809d"/></g><defs><clipPath id="A"><path fill="#fff" d="M0 0h20v20H0z"/></clipPath></defs></svg>
